X: 33575
T: Rakes Of Kildare, The
R: jig
M: 6/8
K: Adorian
|:z|~A3 BAG|Bcd ~e3|AeA ~e3|d2 G BAG|
~A3 BAG|Bcd e2 a|age dBe|ABA A2:|
|:a|~a3 aea|aea b2 a|~g3 ~a3|~g3 deg|
a2 a age|aea ~b3|~g3 edB|ABA A2:|

